X:1
%
T:Margaret MacDonald
M:C|
L:1/8
R:Strathspey
B:Laybourn - Köhlers' Violin Repository Book 2 (1881-1885, p. 167).
Z:AK/Fiddler's Companion
K:G
(B/^d/)|.e>.f {ef}(g>f) e(EE>F)|{AGF}G>FG<B F3f|(g>e)(f>^d) e>dB<=d|
A>GF<B [B,2E2]:|F|.G>.A(B>^c) .d>=.c(Bc)|(B>{cB}A) (G>A) [F3B3] f|
(g>e)(f>^d) e>dB<=d|A>GF<B [B3E3]F|.G>.A(B>^c) .d>=c(Bc)|
(B>{cB}A)(G>A) B3A|.B>.b (g>f) e^dB=d|A>GF<B [B,3E3]!D.C.!||

